svgs/sharp-solid/utility-pole-double.svg

<svg xmlns="http://www.w3.org/2000/svg" viewBox="0 0 512 512"><!--! Font Awesome Pro 6.6.0 by @fontawesome - https://fontawesome.com License - https://fontawesome.com/license (Commercial License) Copyright 2024 Fonticons, Inc. --><path d="M288 0l0 32 0 32 96 0 0-8 0-24 48 0 0 24 0 8 32 0 0-8 0-24 48 0 0 24 0 8 0 32 0 24 0 8-32 0-51.2 0L288 221.9l0 34.1 96 0 0-8 0-24 48 0 0 24 0 8 32 0 0-8 0-24 48 0 0 24 0 8 0 32 0 24 0 8-32 0-51.2 0L288 413.9l0 66.1 0 32-64 0 0-32 0-66.1L83.2 320 32 320 0 320l0-8 0-24 0-32 0-8 0-24 48 0 0 24 0 8 32 0 0-8 0-24 48 0 0 24 0 8 96 0 0-34.1L83.2 128 32 128 0 128l0-8L0 96 0 64l0-8L0 32l48 0 0 24 0 8 32 0 0-8 0-24 48 0 0 24 0 8 96 0 0-32 0-32 64 0zM140.8 128L224 183.4l0-55.4-83.2 0zM288 183.4L371.2 128 288 128l0 55.4zM140.8 320L224 375.4l0-55.4-83.2 0zM288 375.4L371.2 320 288 320l0 55.4z"/></svg>

<svg xmlns="http://www.w3.org/2000/svg" viewBox="0 0 512 512"><!--! Font Awesome Pro 6.4.0 by @fontawesome - https://fontawesome.com License - https://fontawesome.com/license (Commercial License) Copyright 2023 Fonticons, Inc. --><path d="M288 0V32 64h96V56 32h48V56v8h32V56 32h48V56v8V96v24 8H480 428.8L288 221.9V256h96v-8V224h48v24 8h32v-8V224h48v24 8 32 24 8H480 428.8L288 413.9V480v32H224V480 413.9L83.2 320H32 0v-8V288 256v-8V224H48v24 8H80v-8V224h48v24 8h96V221.9L83.2 128H32 0v-8V96 64 56 32H48V56v8H80V56 32h48V56v8h96V32 0h64zM140.8 128L224 183.4V128H140.8zM288 183.4L371.2 128H288v55.4zM140.8 320L224 375.4V320H140.8zM288 375.4L371.2 320H288v55.4z"/></svg>
